X: 21629
T: Killavil Postman, The
R: barndance
M: 4/4
K: Gmajor
d2g2 g2e2|dedB GEDE|G2G2 G2A2|B4 BABc|
d2g2 g2e2|dedB G3d|e2a2 a2b2|a4 a2 (4cdef|
g2b2 g2ge|dedB GEDE|G2G2 G2A2|B4 B4|
e3B cBAB|d3B cBAG|E2 G2 G2 A2|G4 G4||
b3g (3agf eg|b3g (3agf eg|b2b2 b2c'2|b4 b4|
a3f (3agf ef|a3f (3agf ef|a2a2 a2b2|f4 f4|
b3g (3agf eg|b3g (3agf eg|b2b2 b2c'2|b4 baga|
b2b2 a2a2|g2g2 f2f2|fgag fgag|f2e2 dcBc||

